src/assets/icons/phone.svg

<svg viewBox="0 0 15 15" fill="none" xmlns="http://www.w3.org/2000/svg">
<path fill-rule="evenodd" clip-rule="evenodd" d="M6.73449 3.19146C7.17396 3.67861 7.03463 4.2305 6.64605 4.75416C6.55392 4.87831 6.44773 5.00064 6.31947 5.13544C6.25791 5.20014 6.20991 5.24879 6.1095 5.3493C5.88147 5.57756 5.68978 5.76935 5.53442 5.9247C5.45908 6.00003 5.97345 7.02788 6.9717 8.02711C7.9694 9.02579 8.9972 9.54051 9.07289 9.46478L9.64757 8.88978C9.96404 8.57299 10.1316 8.42015 10.3619 8.26906C10.8407 7.95496 11.3629 7.86961 11.8034 8.26343C13.2414 9.29208 14.0552 9.92331 14.4538 10.3375C15.2315 11.1455 15.1295 12.3892 14.4583 13.0987C14.2255 13.3447 13.9303 13.6401 13.5817 13.9761C11.4731 16.0859 7.02284 14.802 3.6122 11.388C0.200797 7.97323 -1.08248 3.52256 1.02176 1.41719C1.39953 1.03348 1.52409 0.90899 1.892 0.546468C2.577 -0.128482 3.87808 -0.234165 4.669 0.547135C5.08502 0.958102 5.74828 1.81148 6.73449 3.19146ZM10.7078 9.95032L10.133 10.5254C9.15593 11.503 7.49202 10.6697 5.91139 9.08754C4.32968 7.50427 3.49732 5.84098 4.47468 4.8637C4.62983 4.70856 4.82134 4.51695 5.0492 4.28887C5.14113 4.19684 5.18318 4.15422 5.23366 4.10116C5.30243 4.02889 5.35895 3.9654 5.40419 3.90923C4.53017 2.69172 3.93602 1.93096 3.61572 1.61456C3.4503 1.45115 3.07991 1.48124 2.94393 1.61522C2.58126 1.97257 2.46206 2.09172 2.08581 2.47385C0.732574 3.82783 1.76852 7.42072 4.67251 10.3276C7.57559 13.2335 11.1679 14.2699 12.5315 12.9058C12.8746 12.5748 13.1543 12.295 13.3695 12.0675C13.5251 11.9031 13.5529 11.5639 13.374 11.378C13.076 11.0684 12.3464 10.4995 11.0866 9.59488C10.9948 9.66878 10.8819 9.77598 10.7078 9.95032Z" fill="#323E4A"/>
</svg>

<svg xmlns="http://www.w3.org/2000/svg" fill="currentColor" viewBox="0 0 15 15"><path fill-rule="evenodd" d="M6.734 3.191c.44.488.3 1.04-.088 1.563a4.09 4.09 0 0 1-.327.381c-.061.065-.11.114-.21.214l-.575.576c-.075.075.44 1.103 1.438 2.102.997.999 2.025 1.514 2.1 1.438l.576-.575c.316-.317.484-.47.714-.62.479-.315 1-.4 1.441-.007 1.438 1.03 2.252 1.66 2.65 2.075.779.808.677 2.051.005 2.76-.232.247-.528.542-.876.878-2.109 2.11-6.56.826-9.97-2.588-3.411-3.415-4.694-7.865-2.59-9.97.378-.385.502-.509.87-.872.685-.674 1.986-.78 2.777.001.416.411 1.08 1.264 2.065 2.644Zm3.974 6.76-.575.574c-.977.978-2.641.145-4.222-1.437C4.33 7.504 3.497 5.84 4.475 4.864a1617.861 1617.861 0 0 0 .759-.763c.068-.072.125-.136.17-.192-.874-1.217-1.468-1.978-1.788-2.294-.166-.164-.536-.134-.672 0a63.28 63.28 0 0 0-.858.859c-1.353 1.354-.317 4.947 2.587 7.854 2.903 2.905 6.495 3.942 7.858 2.578.344-.331.623-.611.838-.838.156-.165.184-.504.005-.69-.298-.31-1.028-.879-2.287-1.783a5.133 5.133 0 0 0-.38.355Z" clip-rule="evenodd"/></svg>
